X: 17879
T: Horse's Bransle
R: polka
M: 2/4
K: Gmajor
|:"G" G>A BB|"C" cB Ac|"G" BA GF|"D7"E2 "D"D2|
"G" G>A BB|"C" cB Ac|"G"BG "D"AF|"G"G2 G2:|
|:"G"dc/2B/2 AB|"C"cB/2A/2 GB|"D7"AG FG|"D"A2 A2|
"G" dc/2B/2 AB|"C" cB/2A/2 GB|"D7" AG "D"GF|"G"G2 G2:|
|:"Gm"_BA/2G/2 BA/2G/2|"D"FG A2|"D"D>E FG|"D"A_B AG|
"Gm"_BA/2G/2 BA/2G/2|"D"FG A2|"D"D>E FG|"D7"GF "G"G2:|

